src/images/collections/identity.svg

<svg width="330" height="220" viewBox="0 0 330 220" fill="none" xmlns="http://www.w3.org/2000/svg">
<path d="M45 160.5H285" stroke="#212121" stroke-dasharray="3 3"/>
<rect x="71" y="66" width="188" height="112" fill="white" stroke="#212121"/>
<path d="M79.5 77C80.8807 77 82 75.8807 82 74.5C82 73.1193 80.8807 72 79.5 72C78.1193 72 77 73.1193 77 74.5C77 75.8807 78.1193 77 79.5 77Z" fill="#006776" stroke="#212121"/>
<path d="M89.5 77C90.8807 77 92 75.8807 92 74.5C92 73.1193 90.8807 72 89.5 72C88.1193 72 87 73.1193 87 74.5C87 75.8807 88.1193 77 89.5 77Z" fill="#00BFA5" stroke="#212121"/>
<path d="M99.5 77C100.881 77 102 75.8807 102 74.5C102 73.1193 100.881 72 99.5 72C98.1193 72 97 73.1193 97 74.5C97 75.8807 98.1193 77 99.5 77Z" fill="#00E676" stroke="#212121"/>
<mask id="mask0" mask-type="alpha" maskUnits="userSpaceOnUse" x="141" y="66" width="118" height="112">
<path d="M206.056 178L141.392 66H259V178H206.056Z" fill="#C4C4C4"/>
</mask>
<g mask="url(#mask0)">
<path d="M122 83H322" stroke="#212121"/>
<path d="M122 103H322" stroke="#212121"/>
<path d="M122 123H322" stroke="#212121"/>
<path d="M122 143H322" stroke="#212121"/>
<path d="M122 163H322" stroke="#212121"/>
<path d="M142 23V223" stroke="#212121"/>
<path d="M162 23V223" stroke="#212121"/>
<path d="M182 23V223" stroke="#212121"/>
<path d="M202 23V223" stroke="#212121"/>
<path d="M222 23V223" stroke="#212121"/>
<path d="M242 23V223" stroke="#212121"/>
</g>
<path d="M206.056 178L141.392 66H259V178H206.056Z" stroke="#212121"/>
<circle cx="202" cy="83" r="4" fill="#006776" stroke="#212121"/>
<circle cx="202" cy="143" r="4" fill="#00E676" stroke="#212121"/>
<circle cx="242" cy="163" r="4" fill="#00BFA5" stroke="#212121"/>
<rect x="45" y="178" width="240" height="8" fill="white" stroke="#212121"/>
<rect x="155" y="111" width="80" height="24" fill="white" stroke="#212121"/>
<path d="M166.5 123V118M166.5 123L171 121.5M166.5 123L169.5 127M166.5 123L163.5 127M166.5 123L162 121.5" stroke="#212121"/>
<path d="M179.5 123V118M179.5 123L184 121.5M179.5 123L182.5 127M179.5 123L176.5 127M179.5 123L175 121.5" stroke="#212121"/>
<path d="M192.5 123V118M192.5 123L197 121.5M192.5 123L195.5 127M192.5 123L189.5 127M192.5 123L188 121.5" stroke="#212121"/>
<path d="M205.5 123V118M205.5 123L210 121.5M205.5 123L208.5 127M205.5 123L202.5 127M205.5 123L201 121.5" stroke="#212121"/>
<path fill-rule="evenodd" clip-rule="evenodd" d="M94.7697 136.999C94.7017 136.453 94.6667 135.897 94.6667 135.333C94.6667 127.97 100.636 122 108 122C115.364 122 121.333 127.97 121.333 135.333C121.333 135.897 121.298 136.453 121.23 136.999C117.705 140.111 113.073 142 108 142C102.927 142 98.2955 140.111 94.7697 136.999ZM114.667 112C114.667 115.682 111.682 118.667 108 118.667C104.318 118.667 101.333 115.682 101.333 112C101.333 108.318 104.318 105.333 108 105.333C111.682 105.333 114.667 108.318 114.667 112Z" fill="#006776"/>
<path d="M94.7697 136.999L94.2735 137.061L94.2969 137.249L94.4388 137.374L94.7697 136.999ZM121.23 136.999L121.561 137.374L121.703 137.249L121.726 137.061L121.23 136.999ZM94.1667 135.333C94.1667 135.918 94.203 136.495 94.2735 137.061L95.2659 136.937C95.2004 136.412 95.1667 135.877 95.1667 135.333H94.1667ZM108 121.5C100.36 121.5 94.1667 127.693 94.1667 135.333H95.1667C95.1667 128.246 100.912 122.5 108 122.5V121.5ZM121.833 135.333C121.833 127.693 115.64 121.5 108 121.5V122.5C115.088 122.5 120.833 128.246 120.833 135.333H121.833ZM121.726 137.061C121.797 136.495 121.833 135.918 121.833 135.333H120.833C120.833 135.877 120.8 136.412 120.734 136.937L121.726 137.061ZM120.899 136.624C117.461 139.659 112.946 141.5 108 141.5V142.5C113.199 142.5 117.948 140.564 121.561 137.374L120.899 136.624ZM108 141.5C103.054 141.5 98.5386 139.659 95.1006 136.624L94.4388 137.374C98.0525 140.564 102.801 142.5 108 142.5V141.5ZM108 119.167C111.958 119.167 115.167 115.958 115.167 112H114.167C114.167 115.406 111.406 118.167 108 118.167V119.167ZM100.833 112C100.833 115.958 104.042 119.167 108 119.167V118.167C104.594 118.167 101.833 115.406 101.833 112H100.833ZM108 104.833C104.042 104.833 100.833 108.042 100.833 112H101.833C101.833 108.594 104.594 105.833 108 105.833V104.833ZM115.167 112C115.167 108.042 111.958 104.833 108 104.833V105.833C111.406 105.833 114.167 108.594 114.167 112H115.167Z" fill="#212121"/>
<circle cx="108" cy="122" r="20" stroke="#212121"/>
<circle cx="128" cy="142" r="16.5" fill="#00BFA5" stroke="#212121"/>
<path fill-rule="evenodd" clip-rule="evenodd" d="M137.828 137.828L125.414 150.243L118 142.828L120.828 140L125.414 144.586L135 135L137.828 137.828Z" fill="white" stroke="#212121"/>
<path d="M225 40L162 103" stroke="#212121" stroke-dasharray="2 2"/>
<path d="M259 126L222 163" stroke="#212121" stroke-dasharray="2 2"/>
<path d="M225 80L202 103" stroke="#212121" stroke-dasharray="2 2"/>
<rect x="232" y="21" width="48" height="103" rx="6" fill="white" stroke="#212121"/>
<rect x="232" y="33" width="48" height="78" fill="white" stroke="#212121"/>
<path d="M250 27.5H262" stroke="#212121"/>
<path fill-rule="evenodd" clip-rule="evenodd" d="M263.747 61.96C263.64 61.96 263.533 61.9333 263.44 61.88C260.88 60.56 258.667 60 256.013 60C253.373 60 250.867 60.6266 248.587 61.88C248.267 62.0533 247.867 61.9333 247.68 61.6133C247.507 61.2933 247.627 60.88 247.947 60.7066C250.427 59.36 253.147 58.6666 256.013 58.6666C258.853 58.6666 261.333 59.2933 264.053 60.6933C264.387 60.8666 264.507 61.2666 264.333 61.5866C264.213 61.8266 263.987 61.96 263.747 61.96ZM244.667 68.96C244.533 68.96 244.4 68.92 244.28 68.84C243.973 68.6266 243.907 68.2133 244.12 67.9066C245.44 66.04 247.12 64.5733 249.12 63.5466C253.307 61.3866 258.667 61.3733 262.867 63.5333C264.867 64.56 266.547 66.0133 267.867 67.8666C268.08 68.16 268.013 68.5866 267.707 68.8C267.4 69.0133 266.987 68.9466 266.773 68.64C265.573 66.96 264.053 65.64 262.253 64.72C258.427 62.76 253.533 62.76 249.72 64.7333C247.907 65.6666 246.387 67 245.187 68.68C245.08 68.8666 244.88 68.96 244.667 68.96ZM252.533 84.8533C252.653 84.9866 252.827 85.0533 253 85.0533C253.173 85.0533 253.347 84.9866 253.493 84.8533C253.747 84.5866 253.747 84.1733 253.493 83.9066C252.467 82.8666 251.88 82.2133 251.027 80.68C250.213 79.24 249.787 77.4666 249.787 75.5466C249.787 72.32 252.573 69.6933 256 69.6933C259.427 69.6933 262.213 72.32 262.213 75.5466C262.213 75.92 262.507 76.2133 262.88 76.2133C263.253 76.2133 263.547 75.92 263.547 75.5466C263.547 71.5866 260.16 68.36 256 68.36C251.84 68.36 248.453 71.5866 248.453 75.5466C248.453 77.6933 248.933 79.6933 249.853 81.3333C250.747 82.9466 251.373 83.6933 252.533 84.8533ZM262.56 82.5866C260.973 82.5866 259.573 82.1866 258.427 81.4C256.44 80.0533 255.253 77.8666 255.253 75.5466C255.253 75.1733 255.547 74.88 255.92 74.88C256.293 74.88 256.587 75.1733 256.587 75.5466C256.587 77.4266 257.547 79.2 259.173 80.2933C260.12 80.9333 261.227 81.24 262.56 81.24C262.88 81.24 263.413 81.2 263.947 81.1066C264.307 81.04 264.653 81.28 264.72 81.6533C264.787 82.0133 264.547 82.36 264.173 82.4266C263.413 82.5733 262.747 82.5866 262.56 82.5866ZM259.707 85.3066C259.76 85.32 259.827 85.3333 259.88 85.3333C260.16 85.3333 260.44 85.1333 260.507 84.8266C260.6 84.48 260.4 84.1066 260.04 84.0133C258.16 83.4933 256.947 82.8 255.68 81.5466C254.067 79.9466 253.187 77.8133 253.187 75.5333C253.187 74.1066 254.427 72.9466 255.96 72.9466C257.493 72.9466 258.733 74.1066 258.733 75.5333C258.733 77.6933 260.573 79.4533 262.84 79.4533C265.107 79.4533 266.947 77.6933 266.947 75.5333C266.947 69.7733 262.013 65.0933 255.947 65.0933C251.64 65.0933 247.707 67.5066 245.933 71.2266C245.333 72.4933 245.027 73.9466 245.027 75.5466C245.027 77.3466 245.347 79.08 246 80.8266C246.12 81.16 246.507 81.3466 246.853 81.2133C247.2 81.0933 247.373 80.7066 247.24 80.36C246.44 78.2266 246.347 76.5866 246.347 75.5466C246.347 74.16 246.613 72.8933 247.133 71.8133C248.693 68.5466 252.16 66.44 255.947 66.44C261.28 66.44 265.613 70.52 265.613 75.5466C265.613 76.9733 264.373 78.1333 262.84 78.1333C261.307 78.1333 260.067 76.9733 260.067 75.5466C260.067 73.3866 258.227 71.6266 255.96 71.6266C253.693 71.6266 251.853 73.3866 251.853 75.5466C251.853 78.1866 252.88 80.6533 254.747 82.5066C256.2 83.9333 257.587 84.72 259.707 85.3066Z" fill="#212121"/>
</svg>

<svg width="330" height="220" fill="none" xmlns="http://www.w3.org/2000/svg"><path d="M45 160.5h240" stroke="#212121" stroke-dasharray="3 3"/><path fill="#fff" stroke="#212121" d="M71 66h188v112H71z"/><path d="M79.5 77a2.5 2.5 0 100-5 2.5 2.5 0 000 5z" fill="#006776" stroke="#212121"/><path d="M89.5 77a2.5 2.5 0 100-5 2.5 2.5 0 000 5z" fill="#00BFA5" stroke="#212121"/><path d="M99.5 77a2.5 2.5 0 100-5 2.5 2.5 0 000 5z" fill="#00E676" stroke="#212121"/><mask id="a" maskUnits="userSpaceOnUse" x="141" y="66" width="118" height="112"><path d="M206.056 178L141.392 66H259v112h-52.944z" fill="#C4C4C4"/></mask><g mask="url(#a)" stroke="#212121"><path d="M122 83h200M122 103h200M122 123h200M122 143h200M122 163h200M142 23v200M162 23v200M182 23v200M202 23v200M222 23v200M242 23v200"/></g><path d="M206.056 178L141.392 66H259v112h-52.944z" stroke="#212121"/><circle cx="202" cy="83" r="4" fill="#006776" stroke="#212121"/><circle cx="202" cy="143" r="4" fill="#00E676" stroke="#212121"/><circle cx="242" cy="163" r="4" fill="#00BFA5" stroke="#212121"/><path fill="#fff" stroke="#212121" d="M45 178h240v8H45zM155 111h80v24h-80z"/><path d="M166.5 123v-5m0 5l4.5-1.5m-4.5 1.5l3 4m-3-4l-3 4m3-4l-4.5-1.5M179.5 123v-5m0 5l4.5-1.5m-4.5 1.5l3 4m-3-4l-3 4m3-4l-4.5-1.5M192.5 123v-5m0 5l4.5-1.5m-4.5 1.5l3 4m-3-4l-3 4m3-4l-4.5-1.5M205.5 123v-5m0 5l4.5-1.5m-4.5 1.5l3 4m-3-4l-3 4m3-4l-4.5-1.5" stroke="#212121"/><path fill-rule="evenodd" clip-rule="evenodd" d="M94.77 136.999a13.476 13.476 0 01-.103-1.666C94.667 127.97 100.636 122 108 122s13.333 5.97 13.333 13.333c0 .564-.035 1.12-.103 1.666A19.924 19.924 0 01108 142a19.926 19.926 0 01-13.23-5.001zM114.667 112a6.667 6.667 0 11-13.334 0 6.667 6.667 0 0113.334 0z" fill="#006776"/><path d="M94.77 136.999l-.496.062.023.188.142.125.33-.375zm26.46 0l.331.375.142-.125.023-.188-.496-.062zm-27.063-1.666c0 .585.036 1.162.106 1.728l.993-.124c-.066-.525-.1-1.06-.1-1.604h-1zM108 121.5c-7.64 0-13.833 6.193-13.833 13.833h1c0-7.087 5.745-12.833 12.833-12.833v-1zm13.833 13.833c0-7.64-6.193-13.833-13.833-13.833v1c7.088 0 12.833 5.746 12.833 12.833h1zm-.107 1.728c.071-.566.107-1.143.107-1.728h-1c0 .544-.033 1.079-.099 1.604l.992.124zm-.827-.437A19.423 19.423 0 01108 141.5v1c5.199 0 9.948-1.936 13.561-5.126l-.662-.75zM108 141.5a19.424 19.424 0 01-12.9-4.876l-.661.75A20.425 20.425 0 00108 142.5v-1zm0-22.333a7.167 7.167 0 007.167-7.167h-1a6.167 6.167 0 01-6.167 6.167v1zM100.833 112a7.167 7.167 0 007.167 7.167v-1a6.167 6.167 0 01-6.167-6.167h-1zm7.167-7.167a7.167 7.167 0 00-7.167 7.167h1a6.167 6.167 0 016.167-6.167v-1zm7.167 7.167a7.167 7.167 0 00-7.167-7.167v1a6.167 6.167 0 016.167 6.167h1z" fill="#212121"/><circle cx="108" cy="122" r="20" stroke="#212121"/><circle cx="128" cy="142" r="16.5" fill="#00BFA5" stroke="#212121"/><path fill-rule="evenodd" clip-rule="evenodd" d="M137.828 137.828l-12.414 12.415-7.414-7.415 2.828-2.828 4.586 4.586L135 135l2.828 2.828z" fill="#fff" stroke="#212121"/><path d="M225 40l-63 63M259 126l-37 37M225 80l-23 23" stroke="#212121" stroke-dasharray="2 2"/><rect x="232" y="21" width="48" height="103" rx="6" fill="#fff" stroke="#212121"/><path fill="#fff" stroke="#212121" d="M232 33h48v78h-48z"/><path d="M250 27.5h12" stroke="#212121"/><path fill-rule="evenodd" clip-rule="evenodd" d="M263.747 61.96a.62.62 0 01-.307-.08c-2.56-1.32-4.773-1.88-7.427-1.88-2.64 0-5.146.627-7.426 1.88a.679.679 0 01-.907-.267.675.675 0 01.267-.906c2.48-1.347 5.2-2.04 8.066-2.04 2.84 0 5.32.626 8.04 2.026a.652.652 0 01.28.894.653.653 0 01-.586.373zm-19.08 7a.665.665 0 01-.547-1.053c1.32-1.867 3-3.334 5-4.36 4.187-2.16 9.547-2.174 13.747-.014 2 1.027 3.68 2.48 5 4.334a.668.668 0 01-.16.933.666.666 0 01-.934-.16c-1.2-1.68-2.72-3-4.52-3.92-3.826-1.96-8.72-1.96-12.533.013-1.813.934-3.333 2.267-4.533 3.947a.582.582 0 01-.52.28zm7.866 15.893c.12.134.294.2.467.2a.73.73 0 00.493-.2.683.683 0 000-.946c-1.026-1.04-1.613-1.694-2.466-3.227-.814-1.44-1.24-3.213-1.24-5.133 0-3.227 2.786-5.854 6.213-5.854s6.213 2.627 6.213 5.854a.66.66 0 00.667.666.66.66 0 00.667-.666c0-3.96-3.387-7.187-7.547-7.187s-7.547 3.227-7.547 7.187c0 2.146.48 4.146 1.4 5.786.894 1.614 1.52 2.36 2.68 3.52zm10.027-2.266c-1.587 0-2.987-.4-4.133-1.187-1.987-1.347-3.174-3.533-3.174-5.853a.66.66 0 01.667-.667.66.66 0 01.667.667c0 1.88.96 3.653 2.586 4.746.947.64 2.054.947 3.387.947.32 0 .853-.04 1.387-.133a.665.665 0 01.773.546.664.664 0 01-.547.774c-.76.146-1.426.16-1.613.16zm-2.853 2.72c.053.013.12.026.173.026.28 0 .56-.2.627-.506a.662.662 0 00-.467-.814c-1.88-.52-3.093-1.213-4.36-2.466a8.398 8.398 0 01-2.493-6.014c0-1.426 1.24-2.586 2.773-2.586 1.533 0 2.773 1.16 2.773 2.586 0 2.16 1.84 3.92 4.107 3.92 2.267 0 4.107-1.76 4.107-3.92 0-5.76-4.934-10.44-11-10.44-4.307 0-8.24 2.414-10.014 6.134-.6 1.266-.906 2.72-.906 4.32 0 1.8.32 3.533.973 5.28.12.333.507.52.853.386a.65.65 0 00.387-.853c-.8-2.133-.893-3.773-.893-4.813 0-1.387.266-2.654.786-3.734 1.56-3.266 5.027-5.373 8.814-5.373 5.333 0 9.666 4.08 9.666 9.107 0 1.426-1.24 2.586-2.773 2.586-1.533 0-2.773-1.16-2.773-2.586 0-2.16-1.84-3.92-4.107-3.92-2.267 0-4.107 1.76-4.107 3.92a9.728 9.728 0 002.894 6.96c1.453 1.426 2.84 2.213 4.96 2.8z" fill="#212121"/></svg>
